assets/icons/informations/event_repeat.svg

<svg viewBox="0 0 24 24" xmlns="http://www.w3.org/2000/svg">
<path d="M3 21C2.45 21 1.979 20.8043 1.587 20.413C1.19567 20.021 1 19.55 1 19V5C1 4.45 1.19567 3.97933 1.587 3.588C1.979 3.196 2.45 3 3 3H4V2C4 1.71667 4.09567 1.479 4.287 1.287C4.479 1.09567 4.71667 1 5 1C5.28333 1 5.521 1.09567 5.713 1.287C5.90433 1.479 6 1.71667 6 2V3H14V2C14 1.71667 14.096 1.479 14.288 1.287C14.4793 1.09567 14.7167 1 15 1C15.2833 1 15.5207 1.09567 15.712 1.287C15.904 1.479 16 1.71667 16 2V3H17C17.55 3 18.021 3.196 18.413 3.588C18.8043 3.97933 19 4.45 19 5V11H17V9H3V19H10V21H3ZM17 23C15.9833 23 15.0667 22.7293 14.25 22.188C13.4333 21.646 12.8333 20.95 12.45 20.1C12.3167 19.8167 12.321 19.5623 12.463 19.337C12.6043 19.1123 12.8333 19 13.15 19C13.2833 19 13.4127 19.0417 13.538 19.125C13.6627 19.2083 13.7583 19.3167 13.825 19.45C14.1083 20.05 14.529 20.5417 15.087 20.925C15.6457 21.3083 16.2833 21.5 17 21.5C17.9667 21.5 18.7917 21.1583 19.475 20.475C20.1583 19.7917 20.5 18.9667 20.5 18C20.5 17.0333 20.1583 16.2083 19.475 15.525C18.7917 14.8417 17.9667 14.5 17 14.5C16.5167 14.5 16.0667 14.5873 15.65 14.762C15.2333 14.9373 14.8667 15.1833 14.55 15.5H15.25C15.4667 15.5 15.646 15.5707 15.788 15.712C15.9293 15.854 16 16.0333 16 16.25C16 16.4667 15.9293 16.646 15.788 16.788C15.646 16.9293 15.4667 17 15.25 17H13C12.7167 17 12.4793 16.904 12.288 16.712C12.096 16.5207 12 16.2833 12 16V13.75C12 13.5333 12.071 13.354 12.213 13.212C12.3543 13.0707 12.5333 13 12.75 13C12.9667 13 13.146 13.0707 13.288 13.212C13.4293 13.354 13.5 13.5333 13.5 13.75V14.425C13.95 13.9917 14.475 13.6457 15.075 13.387C15.675 13.129 16.3167 13 17 13C18.3833 13 19.5627 13.4877 20.538 14.463C21.5127 15.4377 22 16.6167 22 18C22 19.3833 21.5127 20.5627 20.538 21.538C19.5627 22.5127 18.3833 23 17 23Z" fill="inherit"/>
</svg>

<svg viewBox="0 0 24 24" xmlns="http://www.w3.org/2000/svg"><path d="M3 21a2 2 0 0 1-1.4-.6A2 2 0 0 1 1 19V5c0-.5.2-1 .6-1.4A2 2 0 0 1 3 3h1V2c0-.3.1-.5.3-.7.2-.2.4-.3.7-.3.3 0 .5.1.7.3.2.2.3.4.3.7v1h8V2c0-.3.1-.5.3-.7.2-.2.4-.3.7-.3.3 0 .5.1.7.3.2.2.3.4.3.7v1h1c.6 0 1 .2 1.4.6.4.4.6.9.6 1.4v6h-2V9H3v10h7v2H3Zm14 2a4.9 4.9 0 0 1-4.6-2.9v-.8c.2-.2.4-.3.8-.3l.3.1.3.3c.3.7.7 1.1 1.3 1.5.5.4 1.2.6 1.9.6 1 0 1.8-.3 2.5-1s1-1.5 1-2.5-.3-1.8-1-2.5-1.5-1-2.5-1a3.5 3.5 0 0 0-2.4 1h.7c.2 0 .3 0 .5.2l.2.6c0 .2 0 .3-.2.5l-.6.2H13a1 1 0 0 1-.7-.3 1 1 0 0 1-.3-.7v-2.3a.7.7 0 0 1 .8-.7c.2 0 .3 0 .5.2l.2.6v.6c.4-.4 1-.8 1.6-1 .6-.3 1.2-.4 1.9-.4 1.4 0 2.6.5 3.5 1.5 1 1 1.5 2.1 1.5 3.5s-.5 2.6-1.5 3.5c-1 1-2.1 1.5-3.5 1.5Z" fill="inherit"/></svg>
